img/promo/tasks/03.svg

<svg width="54" height="53" viewBox="0 0 54 53" fill="none" xmlns="http://www.w3.org/2000/svg">
<path d="M17.3939 17.9978H34.7781M14.4965 12.2031H37.6754C38.7422 12.2031 39.607 13.0679 39.607 14.1347V30.7188C39.607 31.2311 39.4035 31.7224 39.0413 32.0846L32.4464 38.6794C32.0842 39.0417 31.5929 39.2452 31.0806 39.2452H14.4965C13.4298 39.2452 12.565 38.3804 12.565 37.3136V14.1347C12.565 13.0679 13.4298 12.2031 14.4965 12.2031ZM31.8807 39.2452V31.5189H39.607L31.8807 39.2452Z" stroke="#DABA69" stroke-width="3" stroke-linecap="round" stroke-linejoin="round"/>
</svg>

<svg xmlns="http://www.w3.org/2000/svg" width="54" height="53" fill="none"><path stroke="#DABA69" stroke-linecap="round" stroke-linejoin="round" stroke-width="3" d="M17.394 17.998h17.384m-20.282-5.795h23.18c1.066 0 1.931.865 1.931 1.932v16.584c0 .512-.203 1.003-.566 1.366l-6.595 6.594a1.931 1.931 0 0 1-1.365.566H14.497a1.932 1.932 0 0 1-1.932-1.931v-23.18c0-1.066.865-1.93 1.931-1.93Zm17.385 27.042V31.52h7.726l-7.726 7.726Z"/></svg>
